X: 2111
T: Çıkayım Gideyim Urumeline
C: (Anonim)
O: Turkey
F: http://compmusic.upf.edu/node/140
N: huseyni--turku--sofyan--cikayim_gideyim--
N: makam= huseyni
N: form= turku
N: usul= sofyan = 4/4
M: 4/4
L: 1/16
K: C _2/4B ^3/4f  
Q: 1/4=72
%%MIDI tuningsystem comma53
z4 g2g2 g4 a4  | g2=f2 e2d2 c4 d4  | \
w:   |   | 
z2c4A2 BABd cBBA  | 
w:   | 
A4 d2{e}dc B2{c}BA G4  | z2c4A2 BABd cBBA  | \
w:   |   | 
A6e=f edcB A4  | 
w:   | 
z4 g2g2 g4 a4  | g2=f2 e2d2 c4 d4  | \
w:   |   | 
z2c4A2 BABd cBBA  | 
w:   | 
A4 d2{e}dc B2{c}BA G4  | z2c4A2 BABd cBBA  | \
w:   |   | 
A6e=f edcd e4  | 
w:   | 
z4 c2d2 e4 e2d2  | e2^f2 g2a2 g2=f2 e2d2  | \
w:  Çı ka yım  gi  |  de *  *  *  yim   | 
c4 d4 c4 a4  | g2=f2 e2d2 c3B A2B2  | 
w:  U rum_ e li  |  ne  *  *  a man  *  *  a  | 
c16  | z4 g2g2 g4 a4  | g2=f2 e2d2 .c2.c2 d4  | \
w:  man    |  Ar zu hal  ve  |  re *  yim  *  Meh *  met   | 
z2c4A2 BABd cBBA  | 
w:  bey ler be *  *  *  yi  | 
A4 d2{e}dc B2{c}BA G4  | z2c4A2 BABd cBBA  | \
w:  ne   A *  man  *  a *  *  *  man   |  bey ler be *  *  *  yi  | 
A6e=f edcd e4  | 
w:  ne   SAZ  | 
z4 g2g2 g4 a4  | g2=f2 e2d2 .c2.c2 d4  | \
w:  Ar zu hal  ve  |  re *  yim  *  Meh *  met   | 
z2c4A2 BABd cBBA  | 
w:  bey ler be *  *  *  yi  | 
A4 d2{e}dc B2{c}BA G4  | z2c4A2 BABd cBBA  | \
w:  ne   A *  man  *  a *  *  *  man   |  bey ler be *  *  *  yi  | 
A6e=f edcd e4  | 
w:  ne   SAZ  | 
z4 c2d2 e4 e2d2  | e2^f2 g2a2 g2=f2 e2d2  | \
w:  Kim le ri  sa  |  ra *  *  *  yım   | 
c4 d4 c4 a4  | g2=f2 e2d2 c3B A2B2  | 
w:  se nin  ye ri  |  ne  *  *  a man  *  *  a  | 
c16  | z4 g2g2 g4 a4  | g2=f2 e2d2 .c2.c2 d4  | \
w:  man    |  Giz li  giz li   |  sev *  dâ *  la rı mız   | 
z2c4A2 BABd cBBA  | 
w:  â şi kâr_ *  *  *  ol  | 
A4 d2{e}dc B2{c}BA G4  | z2c4A2 BABd cBBA  | \
w:  du   A *  man  *  a *  *  *  man   |  â şi kâr_ *  *  *  ol  | 
A6e=f edcd e4  | 
w:  du   SAZ  | 
z4 g2g2 g4 a4  | g2=f2 e2d2 .c2.c2 d4  | \
w:  Giz li  giz li   |  sev *  dâ *  la rı mız   | 
z2c4A2 BABd cBBA  | 
w:  â şi kâr_ *  *  *  ol  | 
A4 d2{e}dc B2{c}BA G4  | z2c4A2 BABd cBBA  | \
w:  du   A *  man  *  a *  *  *  man   |  â şi kâr_ *  *  *  ol  | 
A6e=f edcB A4  | 
w:  du   SAZ  | 
|


